X: 545
T: Willow on the Lake
B: tunes
M:3/4
L:1/8
R: irregular
Q: 1/4=100
K:G
V:1 
"^A"[|] AB c |: "G"d4 d2 |[M:2/4] B3 B | "D"cB A2 | "G"G2- GA |[M:3/4]\
"G"BG DD EG |[M:4/4] B4- BABc |[M:3/4]\
"G"d4 d2 |[M:2/4] B3 B | "D"cB A2 | "G"G2- GA |[M:3/4]\
"G"BG DD EF |[M:4/4][1. G4- GABc :|2. G4 GDEG ||
"^B"|: "D"A3B A2G2 | "C"EEGE D2B,2- | "G"B,DED G2A2 | B3c BDEG |\
"D"A3B A2G2 | "C"EEGE D2B,2- | "G"B,DED B2A2 |1. G3G GDEG :|2. G4- GABc |]
ABc |: "G"d4 d2B2- | BB"D"cB A2"G"G2- | GA"G"BG DDEG | B4- BABc |\
"G"d4 d2B2- | BB"D"cB A2"G"G2- | GA"G"BG DDEF | G4- GABc |]
% abcbook-tune_id 63da5934463a27c57aefe310
% abcbook-tune_composer_id 
% abcbook-link-0 https://www.youtube.com/watch?v=BWcIK3z_hmo
% abcbook-boost 5
% abcbook-difficulty 0
% abcbook-tags canberra pickers and fiddlers,old time tunes,steve old time
% abcbook-tablature 
% abcbook-transpose 
% abcbook-tuning 
% abcbook-lastupdated 1675486646871
% abcbook-soundfonts 
% abcbook-repeats 1
%%gchordfont "itim-music,Itim" 20

